X:6
T:Chupferschmids Anneli (Walzer) D&G (tinwhistle in D)
T:wz06012 (Hanny Christen)
%%MIDI program 72   % 111 /74 / 79=whistle
R:waltz
M:3/4
L:1/4
K:D %%MIDI gchordon
A/2A/2 |: "D"Adf | de/2d/2 c/2B/2 | "A7"Acg | c2b | a2c | g2c |1 "D"d/2f/2 e/2d/2 c/2B/2 | A2A/2A/2 :|2 
P"D"d c/2d/2 f/2e/2 | dzF/2A/2 || "G"B>^AB | "A7"g>fe | "D"d>B A/2d/2 | f2 A/2d/2 | "A7"c>B A/2c/2 | g2c/2e/2 | 
"D"d/2f/2 e/2d/2 c/2B/2 | A2F/2A/2 | "G"B>^AB | "A7"g>fe | "D"d>B A/2d/2 | f2a | "A7"g/2f/2 e/2d/2 c/2B/2 | PA ^G/2A/2 B/2c/2 | 
P"D"d c/2d/2 f/2e/2 | dzB/2d/2 || [K:G] "G"g>fe | d>cB | "D7".c.c.d | f2e/2d/2 | .c.c.d | f>e d/2c/2 | "G".B.B.d | 
g2B/2d/2 | g>fe | d>cB | "D7".c.c.d | f2d | b>dd | a>dd | "G"gg/2d/2 B/2d/2 | gzd/2d/2 || 
"D7"dFA | d2d/2d/2 | "G"dGB | d2d/2g/2 | "D7"g f/2d/2 f/2d/2 | "C"f e/2c/2 e/2c/2 | "G"e d/2B/2 d/2B/2 | d2d/2d/2 | 
"D7"dFA | d2d/2d/2 | "G"dGB | d2 ^c/2d/2 | "C"e>cc | "D7"f>dd | "G"gdB | Gzz |] 

